pk/booth.svg

<svg viewBox="0 0 48 48" fill="none" xmlns="http://www.w3.org/2000/svg" height="1em" width="1em">
  <path d="M4 5H44V13L42.6015 13.8391C40.3847 15.1692 37.6153 15.1692 35.3985 13.8391L34 13L32.6015 13.8391C30.3847 15.1692 27.6153 15.1692 25.3985 13.8391L24 13L22.6015 13.8391C20.3847 15.1692 17.6153 15.1692 15.3985 13.8391L14 13L12.6015 13.8391C10.3847 15.1692 7.61531 15.1692 5.39853 13.8391L4 13V5Z" fill="#2F88FF" stroke="black" stroke-width="4" stroke-linecap="round" stroke-linejoin="round"/>
  <rect x="6" y="25" width="36" height="18" stroke="black" stroke-width="4" stroke-linecap="round" stroke-linejoin="round"/>
  <path d="M9 16V25" stroke="black" stroke-width="4" stroke-linecap="round" stroke-linejoin="round"/>
  <path d="M39 16V25" stroke="black" stroke-width="4" stroke-linecap="round" stroke-linejoin="round"/>
</svg>

<svg viewBox="0 0 48 48" fill="none" xmlns="http://www.w3.org/2000/svg" height="1em" width="1em">
  <path d="M4 5h40v8l-1.398.84a7 7 0 0 1-7.203 0L34 13l-1.398.84a7 7 0 0 1-7.203 0L24 13l-1.398.84a7 7 0 0 1-7.204 0L14 13l-1.399.84a7 7 0 0 1-7.202 0L4 13V5Z" fill="#2F88FF" stroke="#000" stroke-width="4" stroke-linecap="round" stroke-linejoin="round"/>
  <path stroke="#000" stroke-width="4" stroke-linecap="round" stroke-linejoin="round" d="M6 25h36v18H6zm3-9v9m30-9v9"/>
</svg>
